app/assets/images/mfa-options/security-key-icon.svg

<svg width="45" height="43" viewBox="0 0 45 43" fill="none" xmlns="http://www.w3.org/2000/svg"><path fill-rule="evenodd" clip-rule="evenodd" d="M17.0239 40.4273C16.1777 41.1373 14.9162 41.0269 14.2062 40.1808L2.28562 25.9744C1.57562 25.1282 1.68599 23.8667 2.53214 23.1567L17.2692 10.7909C17.6489 10.4723 18.1336 10.4249 18.3519 10.6851L32.0531 27.0136C32.2714 27.2737 32.1406 27.7429 31.7609 28.0614L17.0239 40.4273Z" stroke="#0071BB" stroke-width="3.5"/><path fill-rule="evenodd" clip-rule="evenodd" d="M31.3817 26.5075L18.9979 11.749L29.5172 2.92225C30.1242 2.41293 31.0292 2.4921 31.5385 3.09909L42.0779 15.6595C42.5872 16.2665 42.5081 17.1714 41.9011 17.6807L31.3817 26.5075Z" stroke="#0071BB" stroke-width="3.5"/><path fill-rule="evenodd" clip-rule="evenodd" d="M33.1596 14.5706L32.731 14.0598C32.5826 13.8829 32.2383 13.9274 31.962 14.1593L25.554 19.5362L26.5201 20.6876L32.9281 15.3106C33.2044 15.0788 33.308 14.7475 33.1596 14.5706Z" fill="#0071BB"/><path fill-rule="evenodd" clip-rule="evenodd" d="M31.2284 12.2654L30.7998 11.7546C30.6514 11.5777 30.3071 11.6223 30.0308 11.8541L23.6228 17.231L24.589 18.3824L30.9969 13.0055C31.2732 12.7736 31.3769 12.4423 31.2284 12.2654Z" fill="#0071BB"/><path fill-rule="evenodd" clip-rule="evenodd" d="M36.2416 15.907L35.813 15.3962C35.6646 15.2193 35.3214 15.2629 35.0465 15.4936L27.4847 21.8387L28.4508 22.9901L36.0126 16.645C36.2875 16.4143 36.39 16.0839 36.2416 15.907Z" fill="#0071BB"/><path fill-rule="evenodd" clip-rule="evenodd" d="M30.4481 8.99879L30.0196 8.48803C29.8711 8.31113 29.5279 8.35473 29.253 8.58542L21.6912 14.9305L22.6573 16.0819L30.2191 9.7368C30.494 9.5061 30.5966 9.17569 30.4481 8.99879Z" fill="#0071BB"/></svg>

<svg width="45" height="43" viewBox="0 0 45 43" fill="none" xmlns="http://www.w3.org/2000/svg"><path clip-rule="evenodd" d="M17.024 40.427a2 2 0 0 1-2.818-.246L2.286 25.974a2 2 0 0 1 .246-2.817L17.27 10.79c.38-.319.865-.366 1.083-.106l13.701 16.329c.218.26.088.729-.292 1.047L17.024 40.427Z" stroke="#0071BB" stroke-width="3.5"/><path clip-rule="evenodd" d="m31.382 26.508-12.384-14.76 10.52-8.827a1.435 1.435 0 0 1 2.02.177l10.54 12.56c.51.607.43 1.512-.177 2.022l-10.52 8.826Z" stroke="#0071BB" stroke-width="3.5"/><path fill-rule="evenodd" clip-rule="evenodd" d="m33.16 14.57-.429-.51c-.148-.177-.493-.133-.769.1l-6.408 5.376.966 1.152 6.408-5.377c.276-.232.38-.563.232-.74Zm-1.932-2.305-.428-.51c-.149-.177-.493-.133-.77.1l-6.407 5.376.966 1.151 6.408-5.377c.276-.231.38-.563.231-.74Zm5.014 3.642-.429-.51c-.148-.178-.492-.134-.767.097l-7.561 6.345.966 1.151 7.562-6.345c.275-.23.377-.561.229-.738Zm-5.794-6.908-.428-.511c-.149-.177-.492-.133-.767.097l-7.562 6.345.966 1.152 7.562-6.345c.275-.23.378-.561.23-.738Z" fill="#0071BB"/></svg>
